X:1
T:For Children- Book 2 (after Slovakian Folksongs)
T:43. Remembrance
T:Book 2 (after Slovakian Folksongs)
T:43. Remembrance
T:For Children Nr 43, Sz 42 
T: Béla Bartók Revised and Arranged by the Composer, January 1945 
T:Oli 2020
C:Bartók, Béla
Z:Oli 2020
%%score { ( 1 2 ) | ( 3 4 ) }
L:1/8
Q:1/4=52
M:2/4
K:C
V:1 bass nm="Piano"
V:2 bass 
V:3 bass 
V:4 bass 
V:1
"^Lento"!p!!<(! (!3
1
!A,7/4B,/4) | !fermata!!1!!4![E,B,]4!<)! | %2
[K:treble]"^quasi recitando"!mp!!<(! !tenuto!!1!E!tenuto!^F!tenuto!G!tenuto!A | %3
[M:4/4] !tenuto!B2!<)! !tenuto!E6 |[M:2/4] !tenuto!!5!e!tenuto!d !tenuto!e2 | %5
 !tenuto!d!tenuto!B!<(! !tenuto!A2!<)! | !fermata!B4 | %7
 !tenuto!!4!d!tenuto!!4!d!tenuto!^c!tenuto!e |[M:3/4] !tenuto!!2!A2 !tenuto!!1!E4 | %9
[M:2/4] !tenuto!!4!A!tenuto!A !tenuto!B2 | !tenuto!!3!G!tenuto!!1!E!<(! !tenuto!!4
2
!D2!<)! | %11
!mf! !fermata!!2!!4![^CE]4 |[Q:1/4=65]"^T" z4 | z4 | z4 |"^poco agitato"[Q:1/4=80]"^T"!mp! (E^FGA | %16
 B2 E2- | E4- | E4) |!<(! (ed e2) | (dB A2)!<)! | B4- |!>(! B4- | B4!>)! |!p! !tenuto!d(d^ce | %25
 A2 E2- | E4) |"_dim." !tenuto!A(A .B2) | (!3!GE D2) | E4- | E4- | E4 |"_molto cresc." (E^FGA) | %33
[M:3/4] (B2 E4) |[M:2/4]!f!!<(!{/E} !tenuto!e!tenuto!d !tenuto!e2 | %35
 !tenuto!d!tenuto!B !tenuto![DA]2!<)! |!f!{/[B,^D]} !^!B4- |"^poco a poco"[Q:1/4=75]"^T" B4- | %38
[Q:1/4=70]"^T" B4 |!p!"^più tranquillo"[Q:1/4=70]"^T" (.d.d.^c.e) |!>(! (A2!>)! E2) | z4 | %42
[Q:1/4=65]"^T"!<(! (.A.A !tenuto!B2)!<)! |!>(! (.G.E !tenuto!D2)!>)! | E4- | E4- | %46
 E2[K:bass]!pp!"^molto tranquillo"[Q:1/4=55]"^T" (!3
1
!A,>B,) | !1!!4![E,B,]4 | %48
[K:treble] !tenuto!!5!G!tenuto!!3!E !tenuto!D2 |[M:3/4] E6- |[M:2/4] E4- | %51
"^ritard."[Q:1/4=40]"^T""_calando" E !2!G2 (!2!E |E)!ppp! !2!D3 |] %53
V:2
 F,2 | x x3 |[K:treble] x4 |[M:4/4] x8 |[M:2/4] x4 | x4 | x4 | x4 |[M:3/4] x6 |[M:2/4] x4 | %10
 x2 (B,>^C) | x4 | x4 | x4 | x4 | x4 | x4 | x4 | x4 | x4 | x4 | x4 | x4 | x4 | x4 | x4 | x4 | x4 | %28
 x4 | x4 | x4 | x4 | x4 |[M:3/4] x6 |[M:2/4] x4 | x4 | x4 | x4 | x4 | x4 | x4 | x4 | x4 | x4 | x4 | %45
 x4 | x2[K:bass] F,2 | x4 |[K:treble] x4 |[M:3/4] x6 |[M:2/4] x4 | x4 | x4 |] %53
V:3
 !tenuto!!5!!1![D,,A,,]2 |!ped! (!4!!1![C,,G,,]2!8vb(! !fermata!!5!C,,,2)!ped-up!!8vb)! | z4 | %3
[M:4/4] z8 |[M:2/4] z4 | z2 (A,>B,) | %6
!ped! !4!!2!!1![E,G,B,]2!8vb(! !fermata!!5!E,,,2!ped-up!!8vb)! | z4 |[M:3/4] z6 |[M:2/4] z4 | %10
 z2 !4!!2![D,F,]2 | !3!!1![E,G,]2!ped! !fermata!!5!A,,,2 |!p! (!3!!1![G,^C]!5!E,!<(! [G,C]2 | %13
 E,!<)!!>(! [G,^C]2 E, | [G,^C]E,-!>)! ([G,C]2- | [E,G,C]4-))!ped-up! |!ped! [E,G,C]4 | %17
 ([G,^C] E,2 [G,C] | x [G,^C]3- | [E,G,C]4-!ped-up! | [E,G,C]4) | %21
!ped! (!4!!2!!1![E,G,^C]D, [E,G,C]2 | D, [E,G,^C]2 D, | [E,G,^C]D, [E,G,C]2)!ped-up! | z4 | %25
 (!3!!2!!1![G,A,C] D,2 [G,A,C] | D, [G,C]2- D,- | [D,G,A,C]4-) | [D,G,A,C]4 | %29
 (!3!!2!!1![E,G,B,] C,2 [E,G,B,] | C, !>!!3!!2!!1![E,G,_B,]2 C, | x C,3- | [C,E,G,B,]4-) | %33
[M:3/4] [C,E,G,B,]2 [E,G,_B,-] C,2 [E,G,B,] |[M:2/4]!ped! !5!!3![F,,C,] A,3- | %35
 A,2 (E,>!ped-up!!1!^F,) |!ped! (!2!!1![^D,^G,]^G,,"^dim." [D,G,]2 | ^G,, [^D,^G,]2 G,, | %38
 [^D,^G,]^G,, [D,G,]2)!ped-up! | z2 !tenuto!.!5!!3!!1![G,,_B,,E,]2 | z4 | %41
!>(! (!2!!1![C,E,]2!>)! !5!!4![^F,,A,,]2) | z4 | !4!!2![F,,A,,]4- | [F,,A,,]4- | [F,,A,,]4 | %46
 z2 !4!!1![D,,A,,]2 | (!5!!2![C,,G,,]2!8vb(! C,,,2)!8vb)! | z4 |[M:3/4]!pp! z2 (!2!A,,3 B,,) | %50
[M:2/4] (!5!!3!!1![E,,G,,B,,]2!8vb(! !4!C,,,2)!8vb)! | z4 | z4 |] %53
V:4
 x2 | x2!8vb(! x2!8vb)! | x4 |[M:4/4] x8 |[M:2/4] x4 | x2 !3
5
!!2![D,F,]2 | x2!8vb(! x2!8vb)! | %7
 x4 |[M:3/4] x6 |[M:2/4] x4 | x4 | x4 | x4 | x4 | x E,3 | x4 | x4 | x4 | E,[G,^C] E,2- | x4 | x4 | %21
 x4 | x4 | x4 | x4 | x4 | x [G,A,-]3 | x4 | x4 | x4 | x4 | [E,G,=B,] C,2 [E,G,B,]- | x4 | %33
[M:3/4] x6 |[M:2/4] x4 | x2 !2
4
!B,,2 | x4 | x4 | x4 | x4 | x4 | x4 | x4 | x4 | x4 | x4 | x4 | %47
 x2!8vb(! x2!8vb)! | x4 |[M:3/4] x2 !5!!4![D,,F,,]4 |[M:2/4] x2!8vb(! x2!8vb)! | x4 | x4 |] %53

